X:1
T:The Dying Cowgirl
M:6/8
L:1/8
K:A
 E| E2 E F2 F| E2 C C2 C| B,2 A, A,2 F,| A,3- A,2 E| E E2 E2 C| E2 E E2 C|\
C-B, B, B,2 C| B,3- B,2 E| E2 EF E2| E2 C- C2 C| B,A,A, A,2 F,| A,3- A,2 A,|\
 A,2 A, A,2 B,| C2 C C2 C| C2 B, A,2 B,| A,3- A,2||
